material/.icons/material/cart-off.svg

<svg xmlns="http://www.w3.org/2000/svg" viewBox="0 0 24 24"><path d="M22.73 22.73L1.27 1.27 0 2.54l4.39 4.39 2.21 4.66-1.35 2.45c-.16.28-.25.61-.25.96a2 2 0 002 2h7.46l1.38 1.38c-.5.36-.84.95-.84 1.62a2 2 0 002 2c.67 0 1.26-.33 1.62-.84L21.46 24l1.27-1.27M7.42 15a.25.25 0 01-.25-.25l.03-.12.9-1.63h2.36l2 2H7.42m8.13-2c.75 0 1.41-.41 1.75-1.03l3.58-6.47c.08-.16.12-.33.12-.5a1 1 0 00-1-1H6.54l9.01 9M7 18a2 2 0 00-2 2 2 2 0 002 2 2 2 0 002-2 2 2 0 00-2-2z"/></svg>

<?xml version="1.0" encoding="UTF-8"?><!DOCTYPE svg PUBLIC "-//W3C//DTD SVG 1.1//EN" "http://www.w3.org/Graphics/SVG/1.1/DTD/svg11.dtd"><svg xmlns="http://www.w3.org/2000/svg" xmlns:xlink="http://www.w3.org/1999/xlink" version="1.1" id="mdi-cart-off" width="24" height="24" viewBox="0 0 24 24"><path d="M22.73,22.73L1.27,1.27L0,2.54L4.39,6.93L6.6,11.59L5.25,14.04C5.09,14.32 5,14.65 5,15A2,2 0 0,0 7,17H14.46L15.84,18.38C15.34,18.74 15,19.33 15,20A2,2 0 0,0 17,22C17.67,22 18.26,21.67 18.62,21.16L21.46,24L22.73,22.73M7.42,15A0.25,0.25 0 0,1 7.17,14.75L7.2,14.63L8.1,13H10.46L12.46,15H7.42M15.55,13C16.3,13 16.96,12.59 17.3,11.97L20.88,5.5C20.96,5.34 21,5.17 21,5A1,1 0 0,0 20,4H6.54L15.55,13M7,18A2,2 0 0,0 5,20A2,2 0 0,0 7,22A2,2 0 0,0 9,20A2,2 0 0,0 7,18Z" /></svg>
